src/icons/x.svg

<svg viewBox="0 0 10 10" fill="none" xmlns="http://www.w3.org/2000/svg">
<path fill-rule="evenodd" clip-rule="evenodd" d="M0.107143 0.767857L0.767857 0.107143C0.910714 -0.0357143 1.14286 -0.0357143 1.26786 0.107143L5 3.82143L8.71429 0.107143C8.85714 -0.0357143 9.08929 -0.0357143 9.23214 0.107143L9.89286 0.767857C10.0357 0.910714 10.0357 1.14286 9.89286 1.26786L6.16071 5L9.89286 8.71429C10.0357 8.85714 10.0357 9.08929 9.89286 9.23214L9.23214 9.89286C9.08929 10.0357 8.85714 10.0357 8.71429 9.89286L5 6.16071L1.26786 9.89286C1.14286 10.0357 0.910714 10.0357 0.767857 9.89286L0.107143 9.23214C-0.0357143 9.08929 -0.0357143 8.85714 0.107143 8.71429L3.82143 5L0.107143 1.26786C-0.0357143 1.14286 -0.0357143 0.910714 0.107143 0.767857Z" fill="currentColor"/>
</svg>

<svg viewBox="0 0 10 10" fill="none" xmlns="http://www.w3.org/2000/svg"><path fill-rule="evenodd" clip-rule="evenodd" d="M.107.768l.66-.66c.144-.144.376-.144.5 0L5 3.82 8.714.107a.366.366 0 01.518 0l.66.66c.144.144.144.376 0 .5L6.162 5l3.732 3.714a.366.366 0 010 .518l-.66.66a.366.366 0 01-.519 0L5 6.162 1.268 9.893c-.125.143-.357.143-.5 0l-.66-.66a.366.366 0 010-.519L3.82 5 .107 1.268c-.143-.125-.143-.357 0-.5z" fill="currentColor"/></svg>
